X: 1
M: 2/4
L: 1/16
K: C
V: 1
|:\
c2 (3GAB cGEC | ABcd cBAG |\
cGA_B Afaf | edc=B c4 ::\
egcg dgBg | ceAc BGTG2 |
EcEc (e>c)Tc2 | GEcE (FD)D2 |\
V: 2 clef=bass middle=d
|:\
c'2g2e2c2 | f2d2g2e2 |\
c2e2f2d2 | g2G2c4 ::\
c2z2 g2z2 | c2d2G2z2 | g4 c4 |
g2G2 c4 ::\
c4 c4 | c2e2g2G2 |\
c4 c2e2 | g2G2 c4 :|

